X: 33381
T: Queen's
R: hornpipe
M: 4/4
K: Gmajor
|:(3def|g>dB>d e>cA>F|G2G>A B>GF>G|D>FA>B c>AA>G|A>dd>^c d>ef>a|
g>dB>d e>cA>F|G2G>A B>GF>G|D>FA>B c>AF>A|G2G>F G2:|
|:(3Bcd|e2e>f g>e^c>e|d>^cd>e ~f2d2|g>fe>d ^c>AB>G|A>dd>^c d>ef>a|
g>dB>d e>cA>F|G2G>A B>GF>G|D>FA>B c>AF>A|G2G>F G2:|

